X: 1395
T: Mâhi-yi Dil Bahr-i Nâzik
C: Ahmet Avni Konuk
O: Turkey
F: http://compmusic.upf.edu/node/140
N: bahrinazik--kupe--duyek--mahi-yi--ahmet_avni_konuk
N: makam= bahrinazik
N: form= kupe
N: usul= duyek = 8/4
M: 8/4
L: 1/16
K: C    
Q: 1/4=57
%%MIDI tuningsystem comma53
z4 d2e2 d4 ^3/4c4 _7/8B3A B2c2 d2{e}dc d4  | \
w:  Mâ *  *  hi yi  *  *  *  dil   | 
z4 d2e2 d4 B4 dcde d2c2 _1/4B2^3/4A2 B4  | 
w:  Bahr_ *  *  i  Nâ *  *  *  *  *  zik  | 
z4 d8 d4 ^3/4c2d2 e2^3/4f2 g2^2/4f2 e2=f2  | \
w:  te  şi nâ *  *  *  ver  | 
e2d2 d3^3/4c B4 c4 d4 c2e2 d6z2  | 
w:  *  *  lik  *  *  e der    | 
z4 d8 d4 ^3/4c2d2 e2^3/4f2 g2^2/4f2 e2=f2  | \
w:  Bir  a kın *  *  *  tı  | 
e2d2 d2e2 d4 B4 dcde d2c2 _1/4B2^3/4A2 B4  | 
w:  *  *  ya  *  *  tu tul *  *  *  *  *  du   | 
z4 B4 d4 d4 ^3/4c2d2 e2f2 e2d2 c2_7/8B2  | \
w:  seyr_ *  e dip  *  *  *  dâ  | 
A4 A2e2 d4 d2^3/4c2 ^c2_7/8B2 B2A2 A6z2  | 
w:  *  im  *  *  gi *  der    | 
|


